X:1
T:Title
%%score { ( 1 3 ) | ( 2 4 ) }
L:1/8
Q:1/4=100
M:3/4
K:Ab
V:1 treble nm="Grand Piano"
V:3 treble 
V:2 bass 
V:4 bass 
V:1
 [CA]3 [DG] [EA][DF] | [CE]6 | [CA]3 [DG] [EA][DF] | [CE]6 | [DF]3 [EG] [FA][FB] | [=Ec]4 [B,EG]2 | %6
w: Robert~Lowry * * *||||||
 [A,F]6 | [CFA]3 [C=EG] [CFA][DFB] | [B,EG]6 | [Fd]3 [Fc] [FB][FA] | [EB]6 | [Ec]3 [EB] [EA]F | %12
w: ||||||
 z2 z2 G2 | [CA]6 | B4 E2 | c4 A2 | [FA]3 [FB] [FA][DF] | [CE]6 | F2 d2 [A,DF]2 | [A,CE]4 [CEA]2 | %20
w: ||||||||
 G3 A Bc[Q:1/4=98][Q:1/4=97][Q:1/4=95][Q:1/4=94][Q:1/4=92][Q:1/4=91][Q:1/4=89][Q:1/4=88][Q:1/4=86][Q:1/4=84][Q:1/4=83][Q:1/4=81][Q:1/4=80][Q:1/4=78][Q:1/4=77] | %21
w: |
 [CA]6 |] %22
w: |
V:2
 [A,,A,]3 [B,,E,] [C,A,][D,A,] | [A,,A,]6 | [A,,E,]3 [B,,E,] [C,A,][D,A,] | [A,,A,]6 | %4
 [D,A,]3 [D,B,] [D,A,][D,F,] | [C,G,]4 C,2 | F,6 | F,3 C, F,B,, | E,6 | %9
 [B,,B,]3 [C,=A,] [D,B,][=D,B,] | [E,G,]6 | [A,,A,]3 [B,,G,] [C,A,][D,A,D] | %12
 [A,C]2 [CE]2 .[E,B,E]2 | [A,,A,]6 | [E,G,E]4 [E,G,]2 | [A,E]4 [A,CE]2 | [D,D]3 [D,D] [D,D][D,A,] | %17
 [A,,A,]6 | D2 F2 D,2 | A,,4 A,,2 | [E,B,D]3 [E,A,C] [E,G,D][E,G,E] | [A,,A,]6 |] %22
V:3
 x6 | x6 | x6 | x6 | x6 | x6 | x6 | x6 | x6 | x6 | x6 | x6 | E2 A2 z D | x6 | x6 | x6 | x6 | x6 | %18
 x6 | x6 | x6 | x6 |] %22
V:4
 x6 | x6 | x6 | x6 | x6 | x6 | x6 | x6 | x6 | x6 | x6 | x6 | E,4 z2 | x6 | x6 | x6 | x6 | x6 | %18
 [D,A,]4 z2 | x6 | x6 | x6 |] %22

